img/svg/youtube.svg

<svg width="48" height="48" viewBox="0 0 48 48" xmlns="http://www.w3.org/2000/svg">
    <path
        d="M47.5219 14.4001C47.5219 14.4001 47.0531 11.0907 45.6094 9.6376C43.7812 7.7251 41.7375 7.71572 40.8 7.60322C34.0875 7.11572 24.0094 7.11572 24.0094 7.11572H23.9906C23.9906 7.11572 13.9125 7.11572 7.2 7.60322C6.2625 7.71572 4.21875 7.7251 2.39062 9.6376C0.946875 11.0907 0.4875 14.4001 0.4875 14.4001C0.4875 14.4001 0 18.2907 0 22.172V25.8095C0 29.6907 0.478125 33.5813 0.478125 33.5813C0.478125 33.5813 0.946875 36.8907 2.38125 38.3438C4.20937 40.2563 6.60938 40.1907 7.67813 40.397C11.5219 40.7626 24 40.8751 24 40.8751C24 40.8751 34.0875 40.8563 40.8 40.3782C41.7375 40.2657 43.7812 40.2563 45.6094 38.3438C47.0531 36.8907 47.5219 33.5813 47.5219 33.5813C47.5219 33.5813 48 29.7001 48 25.8095V22.172C48 18.2907 47.5219 14.4001 47.5219 14.4001ZM19.0406 30.2251V16.7345L32.0062 23.5032L19.0406 30.2251Z"
       />
</svg>

<svg width="48" height="48" viewBox="0 0 48 48" xmlns="http://www.w3.org/2000/svg"><path d="M47.522 14.4s-.469-3.31-1.913-4.762c-1.828-1.913-3.872-1.922-4.809-2.035-6.712-.487-16.79-.487-16.79-.487h-.02s-10.077 0-16.79.487c-.938.113-2.981.122-4.81 2.035C.948 11.09.488 14.4.488 14.4S0 18.29 0 22.172v3.637c0 3.882.478 7.772.478 7.772s.469 3.31 1.903 4.763c1.828 1.912 4.228 1.847 5.297 2.053 3.844.366 16.322.478 16.322.478s10.087-.019 16.8-.497c.938-.112 2.981-.122 4.81-2.034 1.443-1.453 1.912-4.763 1.912-4.763S48 29.701 48 25.81v-3.637c0-3.881-.478-7.772-.478-7.772zM19.04 30.225v-13.49l12.965 6.768-12.965 6.722z"/></svg>
